contributed-vectors/empik_go.svg

<svg xmlns="http://www.w3.org/2000/svg" xml:space="preserve" style="fill-rule:evenodd;clip-rule:evenodd;stroke-linejoin:round;stroke-miterlimit:2" viewBox="0 0 192 192"><path d="M164.5 21.5c0-5.519-4.481-10-10-10h-133c-5.519 0-10 4.481-10 10v133c0 5.519 4.481 10 10 10h133c5.519 0 10-4.481 10-10v-133Z" style="fill:#96dfd3" transform="translate(8 8)"/><path d="M122.017 92.66c0 15.35-5.329 33.508-28.101 54.262l-14.227-14.227s16.699-15.585 16.699-27.682H70.759V53.756h51.258V92.66Z" style="fill:#fff" transform="translate(20.89 21.746) scale(.78327)"/><path d="m92.995 68.016 10.923 21.845H82.072l10.923-21.845Z" style="fill:#96dfd3" transform="matrix(0 .9724 -.8467 0 164.878 -6.456)"/></svg>

<?xml version="1.0" encoding="UTF-8" standalone="no"?>
<!DOCTYPE svg PUBLIC "-//W3C//DTD SVG 1.1//EN" "http://www.w3.org/Graphics/SVG/1.1/DTD/svg11.dtd">
<svg width="100%" height="100%" viewBox="0 0 192 192" version="1.1" xmlns="http://www.w3.org/2000/svg" xmlns:xlink="http://www.w3.org/1999/xlink" xml:space="preserve" xmlns:serif="http://www.serif.com/" style="fill-rule:evenodd;clip-rule:evenodd;stroke-linejoin:round;stroke-miterlimit:2;">
    <g id="Layer1">
        <g transform="matrix(1,0,0,1,8,8)">
            <path d="M164.5,21.5C164.5,15.981 160.019,11.5 154.5,11.5L21.5,11.5C15.981,11.5 11.5,15.981 11.5,21.5L11.5,154.5C11.5,160.019 15.981,164.5 21.5,164.5L154.5,164.5C160.019,164.5 164.5,160.019 164.5,154.5L164.5,21.5Z" style="fill:rgb(150,223,211);"/>
        </g>
        <g transform="matrix(0.78327,0,0,0.78327,20.8902,21.7464)">
            <path d="M122.017,92.66C122.017,108.01 116.688,126.168 93.916,146.922L79.689,132.695C79.689,132.695 96.388,117.11 96.388,105.013L70.759,105.013L70.759,53.756L122.017,53.756L122.017,92.66Z" style="fill:white;"/>
        </g>
        <g transform="matrix(5.95427e-17,0.972406,-0.846709,5.1846e-17,164.878,-6.45604)">
            <path d="M92.995,68.016L103.918,89.861L82.072,89.861L92.995,68.016Z" style="fill:rgb(150,223,211);"/>
        </g>
    </g>
</svg>
